X: 1
T: Eclipse, The
M: 4/4
L: 1/8
R: hornpipe
K: Emix
A2 EA ceag|gfdB F3 a|(3gag eg (3fgf ^df|eagf (3efe (3dcB|
A2 EA ceag|gfdB F3 a|(3gag eg (3fgf ^df|1 eagf (3efe (3dcB:|2 e^def e^de=f||
fedB GEFG|Aeca ec'ae|f=gef decd|B^dfg e^de=f|
fedB GEFG|ABcd ec'a=f|(3fgf df (3efe ce|1 dBGB A2 e=f:|2 dBGB A2 e=f||
faga fc (3ccc|fcac fc (3ccc|acfa gf=fg|f=f^fg fagf|
eB (3BBB gB (3BBB|eBgB eB (3BBB|e^deg fe^df|1 e^def e^de=f:|2 e^def e=d^cB||
